X:1
T:Title
L:1/8
Q:1/4=100
M:2/4
K:G
V:1 treble nm="Grand Piano"
V:1
 E2 B,E | F2 FF | G2 B2 | E4 | F2 FE | D2 FF | B,4- | B,4 | E2 B,E | F2 FF | G2 B2 | E4 | ^D2 DE | %13
w: ????~???? * *|||||||||||||
 F2 FE | F4- | F4 | c2 cc | c2 cG | B4 | B4 | c2 cc | c2 cG | B4- | B4 | c2 cc | c2 cG | B2 E2 | %27
w: ||||||||||||||
 G3 G | F2 F2 | F2 FF | B2 B2 | E3 E | F2 F2 | G4- | G2 G2 | A3 A | d2 A2 | B4- | B4- | Bc cB | %40
w: |||||||||||||
 A2 Bc | B4 | B4- | Bc cB | A2 Bc | B4- | B4- | Bc cB | A2 Bc | B4 | B4 | _B2 BB | _B2 BB | B4- | %54
w: ||||||||||||||
 B4 | A2 A^G | Ac BB | E4- | E4 |] %59
w: |||||

